X:26
T: Jean Petit qui danse
R:Ronde
Z:Transcrit et/ou corrig? par Michel BELLON - 2007-04-27
Z:Pour toute observation mailto:galouvielle@free.fr
M: 2/4
L: 1/8
K: Am
V: 1
Ae "Am"ed | e2 c2 | "E7"dd ed | (cB) "Am"A2 |
w: Jean pe-tit qui dan-se, Jean Pe-tit qui dan-*se
Ae ed | e2 c2 | "E7"dd ed | (cB) "Am"A2||
w: De son pied il dan-se, De son pied il dan-*se
AB"Am"c2 | "E7"B2"Am"A2|| AB "Am"c2 | "E7"d2 "A"He2 || e>f "E7"ed | cB "A"A2 |]
w: De son pied, pied, pied, De son pied, pied, pied, Ain-si dan-se Jean Pe-tit.
V:2
Ac BA | E2 G2 | BG AG | E/E/F/G/  A2 | 
Ac BA | E2 G2 | BG AG | E/E/F/G/  A2 ||
AG E2 | G2 A2 || ED E2 | F2 HE2 || c>c  BG | EG A2 |]
<end>
<start>
